assets/icons/24px/stroke/heartbeat-monitor-24px.svg

<svg width="24" height="24" viewBox="0 0 24 24" fill="none" xmlns="http://www.w3.org/2000/svg">
<path fill-rule="evenodd" clip-rule="evenodd" d="M8.43189 4.00048C8.90744 4.0151 9.30685 4.36275 9.3869 4.83174L11.2196 15.5685L13.2027 8.80939C13.3267 8.38667 13.7127 8.0949 14.1532 8.09095C14.5938 8.08701 14.985 8.37181 15.1166 8.79225L16.7944 14.1537L17.2243 12.9734C17.229 12.9603 17.2337 12.9473 17.2385 12.9343C17.3418 12.6503 17.4456 12.3654 17.5611 12.1327C17.6932 11.8667 17.8806 11.5825 18.1961 11.3616C18.5116 11.1407 18.8428 11.0619 19.1379 11.0288C19.3961 10.9999 19.6993 10.9999 20.0015 11L21 11C21.5523 11 22 11.4477 22 12C22 12.5523 21.5523 13 21 13H20.0431C19.6821 13 19.4938 13.0015 19.3608 13.0164C19.3588 13.0166 19.3569 13.0168 19.355 13.017C19.3541 13.0187 19.3533 13.0205 19.3524 13.0223C19.2929 13.1421 19.227 13.3186 19.1035 13.6578L17.6623 17.6149C17.5156 18.0178 17.1283 18.2823 16.6997 18.2725C16.271 18.2626 15.8964 17.9806 15.7683 17.5714L14.1931 12.5378L11.9212 20.2815C11.7901 20.7282 11.3682 21.0254 10.9035 20.9983C10.4388 20.9713 10.0542 20.6271 9.97588 20.1683L8.24633 10.036L6.81424 16.1376C6.7124 16.5715 6.33573 16.8856 5.89061 16.9079C5.44548 16.9301 5.03937 16.6551 4.89478 16.2335L4.01749 13.6756C3.89818 13.3277 3.83437 13.1463 3.77579 13.0229C3.77492 13.0211 3.77407 13.0193 3.77323 13.0176C3.77132 13.0174 3.76936 13.0171 3.76735 13.0169C3.63169 13.0015 3.43934 13 3.07158 13H3C2.44772 13 2 12.5523 2 12C2 11.4477 2.44772 11 3 11H3.07158C3.08567 11 3.09976 11 3.11385 11C3.42192 10.9999 3.73056 10.9999 3.99297 11.0297C4.2928 11.0637 4.62939 11.1448 4.94818 11.3725C5.26698 11.6002 5.45287 11.8922 5.58234 12.1648C5.6069 12.2165 5.63084 12.2707 5.65429 12.3269L7.42762 4.77151C7.53633 4.30832 7.95634 3.98586 8.43189 4.00048Z" fill="white"/>
</svg>

<svg width="24" height="24" fill="none" xmlns="http://www.w3.org/2000/svg"><path fill-rule="evenodd" clip-rule="evenodd" d="M8.432 4a1 1 0 0 1 .955.832l1.833 10.736 1.983-6.759a1 1 0 0 1 1.914-.017l1.677 5.362.43-1.18.014-.04c.104-.284.208-.569.323-.801.132-.266.32-.55.635-.771.316-.221.647-.3.942-.333.258-.03.561-.03.863-.029H21a1 1 0 1 1 0 2h-.957c-.36 0-.55.002-.682.016l-.006.001c0 .002-.002.004-.003.005-.06.12-.125.297-.248.636l-1.442 3.957a1 1 0 0 1-1.894-.044l-1.575-5.033-2.272 7.744a1 1 0 0 1-1.945-.114l-1.73-10.132-1.432 6.102a1 1 0 0 1-1.92.095l-.877-2.557a7.212 7.212 0 0 0-.241-.653l-.003-.005-.006-.001A7.203 7.203 0 0 0 3.072 13H3a1 1 0 1 1 0-2H3.114c.308 0 .617 0 .879.03.3.034.636.115.955.343.319.227.505.52.634.792.025.052.049.106.072.162l1.774-7.555A1 1 0 0 1 8.432 4z" fill="#fff"/></svg>
